X:1
T:[ID 3-79 (=3v-36)]
T:[ID 3-79 (=3v-36)]
T:Bezeichnung standardisiert: Allegro Allegro
T:Urheber unbekannt Datum in der hier transkribierten schriftlichen Quelle: 1767
C:Urheber unbekannt
C:Datum in der hier transkribierten schriftlichen Quelle: 1767
%%score 1 2
L:1/8
M:2/4
K:D
V:1 treble 
V:2 treble 
V:1
 d | Dd c/d/e | DfEg | FaGb | e/d/c/B/ A/G/F/E/ | Dd c/d/e | DfEg | Fa Ad/c/ | d3 :: F | GbFa | %11
 GbEg | FaEg | FaDf | Egec | e/d/c/B/ A/G/F/E/ | Dd c/d/e | DfEg | Fa Ad/c/ | d3 :| %20
V:2
 !fermata!F | FF A/B/c | fDgE | aFbG | c/B/A/G/ c/B/A/G/ | FFA/B/c | fDgE | aF FA/G/ |{G} F3 :: d | %10
 bGaF | bGgE | aFgE | aFfD | gEcB | c/B/A/G/ c/B/A/G/ | FFA/B/c | fDgE | aF FA/G/ |{G} F3 :| %20

